icon/fa/shop.svg

<svg xmlns="http://www.w3.org/2000/svg" viewBox="0 0 640 512"><!--! Font Awesome Free 6.1.2 by @fontawesome - https://fontawesome.com License - https://fontawesome.com/license/free (Icons: CC BY 4.0, Fonts: SIL OFL 1.1, Code: MIT License) Copyright 2022 Fonticons, Inc.--><path d="M0 155.2c0-7.3 2.153-14.4 6.188-20.5L81.75 21.37A47.957 47.957 0 0 1 121.7 0h396.6c16.1 0 31 8.021 39.9 21.37l75.6 113.33c4 6.1 6.2 13.2 6.2 20.5 0 20.3-16.5 36.8-36.8 36.8H36.84C16.5 192 0 175.5 0 155.2zM64 224h64v160h192V224h64v240c0 26.5-21.5 48-48 48H112c-26.51 0-48-21.5-48-48V224zm448 0h64v256c0 17.7-14.3 32-32 32s-32-14.3-32-32V224z"/></svg>

<svg xmlns="http://www.w3.org/2000/svg" viewBox="0 0 640 512" height="1em" width="1em">
<!--! Font Awesome Free 6.1.2 by @fontawesome - https://fontawesome.com License - https://fontawesome.com/license/free (Icons: CC BY 4.0, Fonts: SIL OFL 1.1, Code: MIT License) Copyright 2022 Fonticons, Inc.-->
  <path d="M0 155.2C0 147.9 2.153 140.8 6.188 134.7L81.75 21.37C90.65 8.021 105.6 0 121.7 0H518.3C534.4 0 549.3 8.021 558.2 21.37L633.8 134.7C637.8 140.8 640 147.9 640 155.2C640 175.5 623.5 192 603.2 192H36.84C16.5 192 .0003 175.5 .0003 155.2H0zM64 224H128V384H320V224H384V464C384 490.5 362.5 512 336 512H112C85.49 512 64 490.5 64 464V224zM512 224H576V480C576 497.7 561.7 512 544 512C526.3 512 512 497.7 512 480V224z"/>
</svg>
